images/top/top-item-2.svg

<svg width="70" height="70" viewBox="0 0 70 70" fill="none" xmlns="http://www.w3.org/2000/svg">
<path d="M9.62509 7C9.14316 7 8.75009 7.39307 8.75009 7.875C8.75009 8.35693 9.14316 8.75 9.62509 8.75C10.107 8.75 10.5001 8.35693 10.5001 7.875C10.5001 7.39307 10.107 7 9.62509 7ZM25.3751 7C24.8932 7 24.5001 7.39307 24.5001 7.875C24.5001 8.35693 24.8932 8.75 25.3751 8.75C25.857 8.75 26.2501 8.35693 26.2501 7.875C26.2501 7.39307 25.857 7 25.3751 7ZM9.62509 10.5C9.14316 10.5 8.75009 10.8931 8.75009 11.375C8.75009 11.8569 9.14316 12.25 9.62509 12.25C10.107 12.25 10.5001 11.8569 10.5001 11.375C10.5001 10.8931 10.107 10.5 9.62509 10.5ZM25.3751 10.5C24.8932 10.5 24.5001 10.8931 24.5001 11.375C24.5001 11.8569 24.8932 12.25 25.3751 12.25C25.857 12.25 26.2501 11.8569 26.2501 11.375C26.2501 10.8931 25.857 10.5 25.3751 10.5ZM9.61142 13.9863C9.12948 13.9966 8.74325 14.3931 8.75009 14.875V21C8.75009 33.0723 18.5528 42.875 30.6251 42.875H30.9908C31.377 43.8423 32.1495 44.625 33.2501 44.625C34.3507 44.625 35.1231 43.8423 35.5094 42.875H41.1251C42.5846 42.875 43.7501 44.0405 43.7501 45.5V56.875H61.2501V47.25C61.2501 35.1777 51.4473 25.375 39.3751 25.375H35.5094C35.1231 24.4077 34.3507 23.625 33.2501 23.625C32.1495 23.625 31.377 24.4077 30.9908 25.375H28.8751C27.4156 25.375 26.2501 24.2095 26.2501 22.75V14.875C26.2535 14.5605 26.0894 14.2666 25.816 14.106C25.5426 13.9487 25.2076 13.9487 24.9342 14.106C24.6607 14.2666 24.4967 14.5605 24.5001 14.875V22.75C24.5001 25.1562 26.4688 27.125 28.8751 27.125H30.6251C30.6251 27.6069 31.0182 28 31.5001 28C31.982 28 32.3751 27.6069 32.3751 27.125V26.25C32.3751 25.7544 32.7545 25.375 33.2501 25.375C33.7457 25.375 34.1251 25.7544 34.1251 26.25V27.125C34.1251 27.6069 34.5182 28 35.0001 28C35.482 28 35.8751 27.6069 35.8751 27.125H39.3751C50.5006 27.125 59.5001 36.1245 59.5001 47.25V55.125H45.5001V45.5C45.5001 43.0938 43.5313 41.125 41.1251 41.125H35.8751C35.8751 40.6431 35.482 40.25 35.0001 40.25C34.5182 40.25 34.1251 40.6431 34.1251 41.125V42C34.1251 42.4956 33.7457 42.875 33.2501 42.875C32.7545 42.875 32.3751 42.4956 32.3751 42V41.125C32.3751 40.6431 31.982 40.25 31.5001 40.25C31.0182 40.25 30.6251 40.6431 30.6251 41.125C19.4996 41.125 10.5001 32.1255 10.5001 21V14.875C10.5035 14.6392 10.4112 14.4102 10.2437 14.2427C10.0763 14.0752 9.84726 13.9829 9.61142 13.9863ZM31.5001 29.75C31.0182 29.75 30.6251 30.1431 30.6251 30.625C30.6251 31.1069 31.0182 31.5 31.5001 31.5C31.982 31.5 32.3751 31.1069 32.3751 30.625C32.3751 30.1431 31.982 29.75 31.5001 29.75ZM35.0001 29.75C34.5182 29.75 34.1251 30.1431 34.1251 30.625C34.1251 31.1069 34.5182 31.5 35.0001 31.5C35.482 31.5 35.8751 31.1069 35.8751 30.625C35.8751 30.1431 35.482 29.75 35.0001 29.75ZM31.5001 33.25C31.0182 33.25 30.6251 33.6431 30.6251 34.125C30.6251 34.6069 31.0182 35 31.5001 35C31.982 35 32.3751 34.6069 32.3751 34.125C32.3751 33.6431 31.982 33.25 31.5001 33.25ZM35.0001 33.25C34.5182 33.25 34.1251 33.6431 34.1251 34.125C34.1251 34.6069 34.5182 35 35.0001 35C35.482 35 35.8751 34.6069 35.8751 34.125C35.8751 33.6431 35.482 33.25 35.0001 33.25ZM31.5001 36.75C31.0182 36.75 30.6251 37.1431 30.6251 37.625C30.6251 38.1069 31.0182 38.5 31.5001 38.5C31.982 38.5 32.3751 38.1069 32.3751 37.625C32.3751 37.1431 31.982 36.75 31.5001 36.75ZM35.0001 36.75C34.5182 36.75 34.1251 37.1431 34.1251 37.625C34.1251 38.1069 34.5182 38.5 35.0001 38.5C35.482 38.5 35.8751 38.1069 35.8751 37.625C35.8751 37.1431 35.482 36.75 35.0001 36.75ZM52.5001 59.5C52.5001 59.5 50.7501 62.9077 50.7501 63.875C50.7501 64.8423 51.5328 65.625 52.5001 65.625C53.4674 65.625 54.2501 64.8423 54.2501 63.875C54.2501 62.9077 52.5001 59.5 52.5001 59.5Z" fill="#E4B564"/>
</svg>

<svg width="70" height="70" fill="none" xmlns="http://www.w3.org/2000/svg"><path d="M9.625 7a.877.877 0 00-.875.875c0 .482.393.875.875.875a.877.877 0 00.875-.875A.877.877 0 009.625 7zm15.75 0a.877.877 0 00-.875.875c0 .482.393.875.875.875a.877.877 0 00.875-.875.877.877 0 00-.875-.875zm-15.75 3.5a.877.877 0 00-.875.875c0 .482.393.875.875.875a.877.877 0 00.875-.875.877.877 0 00-.875-.875zm15.75 0a.877.877 0 00-.875.875c0 .482.393.875.875.875a.877.877 0 00.875-.875.877.877 0 00-.875-.875zM9.611 13.986a.88.88 0 00-.86.889V21c0 12.072 9.802 21.875 21.874 21.875h.366c.386.967 1.159 1.75 2.26 1.75 1.1 0 1.872-.783 2.258-1.75h5.616A2.613 2.613 0 0143.75 45.5v11.375h17.5V47.25c0-12.072-9.803-21.875-21.875-21.875H35.51c-.386-.967-1.158-1.75-2.259-1.75-1.1 0-1.873.783-2.26 1.75h-2.115a2.613 2.613 0 01-2.625-2.625v-7.875a.88.88 0 00-.434-.769.883.883 0 00-.882 0 .88.88 0 00-.434.769v7.875a4.388 4.388 0 004.375 4.375h1.75c0 .482.393.875.875.875a.877.877 0 00.875-.875v-.875a.86.86 0 01.875-.875.86.86 0 01.875.875v.875c0 .482.393.875.875.875a.877.877 0 00.875-.875h3.5c11.126 0 20.125 9 20.125 20.125v7.875h-14V45.5a4.388 4.388 0 00-4.375-4.375h-5.25A.877.877 0 0035 40.25a.877.877 0 00-.875.875V42a.86.86 0 01-.875.875.86.86 0 01-.875-.875v-.875a.877.877 0 00-.875-.875.877.877 0 00-.875.875C19.5 41.125 10.5 32.125 10.5 21v-6.125a.878.878 0 00-.889-.889zm21.89 15.764a.877.877 0 00-.876.875c0 .482.393.875.875.875a.877.877 0 00.875-.875.877.877 0 00-.875-.875zm3.5 0a.877.877 0 00-.876.875c0 .482.393.875.875.875a.877.877 0 00.875-.875.877.877 0 00-.875-.875zm-3.5 3.5a.877.877 0 00-.876.875c0 .482.393.875.875.875a.877.877 0 00.875-.875.877.877 0 00-.875-.875zm3.5 0a.877.877 0 00-.876.875c0 .482.393.875.875.875a.877.877 0 00.875-.875.877.877 0 00-.875-.875zm-3.5 3.5a.877.877 0 00-.876.875c0 .482.393.875.875.875a.877.877 0 00.875-.875.877.877 0 00-.875-.875zm3.5 0a.877.877 0 00-.876.875c0 .482.393.875.875.875a.877.877 0 00.875-.875.877.877 0 00-.875-.875zM52.5 59.5s-1.75 3.408-1.75 4.375a1.749 1.749 0 103.5 0c0-.967-1.75-4.375-1.75-4.375z" fill="#E4B564"/></svg>
